X:258
M:3/4
L:1/8
K:Db
D D3/2 E/ | F3 A B3/2 A/ | (A2 F) A A3/2 F/ | E3 G F3/2 E/ | F3 D D3/2 E/ | F3 A B3/2 A/ | (A2 F) A A3/2 F/ | E3 G F3/2 E/ | D3 d d3/2 d/ | B3 d d3/2 d/ | (A2 F) A A3/2 B/ | (A2 E2) G2 | F3 d d3/2 d/ | B3 d d3/2 d/ | (A2 F) A A3/2 B/ | (A2 E2) F2 | D3 d d3/2 d/ | d3 d c3/2 B/ | (A2 F) A A3/2 B/ | (A2 E2) B2 | A3 !sintro!d d3/2 d/ | d3 d c3/2 B/ | (A2 F) A A3/2 B/ | (A2 E2) F2 | D3 !eintro!|]
